X: 1
T: Paddy Fah(e)y's Reel #1
C: Paddy Fahy
S: Roaring Jelly Collection
R: reel
Z: 2013 John Chambers <jc:trillian.mit.edu>
M: C|
L: 1/8
K: Ddor
|:\
"Dm"D2A,D FEFG | "A7"Add^c "Dm"d2de |\
"Dm"fedf "C"edcA | "Bb"dcAG "Am"FDEC |\
"Dm"D3E FEFG |
"A7"Add^c "Dm"d2de |\
"Dm(Bb)"fedf "Gm(C)"edcA | "Am"dcAG "Dm"FDD2 ::\
"D"Ad~d2 ^fded | "C"c2Gc EcGc |
"D"Ad~d2 ^fded | "C"cBcd "D"ed~d2 |\
"Dm"a2^ga "Am"ABcA | "Dm"dcAG "C"FDCE |\
"Dm(Bb)"D2A,D FEFG | "A7"Ad^ce "Dm"d4 :|
